assets/icons/qvision/dashboard_customize.svg

<svg xmlns="http://www.w3.org/2000/svg" height="24" viewBox="0 0 24 24" width="24"><path d="M0 0h24v24H0z" fill="none"/><path d="M3 3h8v8H3zm10 0h8v8h-8zM3 13h8v8H3zm15 0h-2v3h-3v2h3v3h2v-3h3v-2h-3z"/></svg>

<svg width="24" height="24" viewBox="0 0 24 24" fill="none" xmlns="http://www.w3.org/2000/svg">
<g clip-path="url(#clip0_147_4073)">
<path d="M3 3H11V11H3V3ZM13 3H21V11H13V3ZM3 13H11V21H3V13ZM18 13H16V16H13V18H16V21H18V18H21V16H18V13Z" fill="#323232"/>
</g>
<defs>
<clipPath id="clip0_147_4073">
<rect width="24" height="24" fill="white"/>
</clipPath>
</defs>
</svg>
